X: 078
T: Happy times
B: 204 Favourite Country Dances
N: Published by Straight & Skillern, London ca.1775
F: http://imslp.org/wiki/204_Favourite_Country_Dances_(Various) p.29 #78
Z: 2014 John Chambers <jc:trillian.mit.edu>
M: C|
L: 1/8
K: D
% - - - - - - - - - - - - - - - - - - - - - - - - -
|:\
d2fd e2ge | f2af ecBA |\
d2fd e2ge | faAc d2D2 :|\
|:\
D2FD AFdB | AFED CECA, |\
D2FD AFdB | AGFE D2D2 :|
% - - - - - - - - - - - - - - - - - - - - - - - - -
%%begintext align
%% The 1st Cu. cross over & turn .|
%% cross over again & turn :| lead up to
%% the top & cast off .|. hands round 6 :|:
%%endtext

%%sep 1 1 500
%%sep 1 1 500
